Suru++-Ubuntu/actions/16/marker.svg

<svg xmlns="http://www.w3.org/2000/svg" width="16" height="16" version="1.1" viewBox="0 2.04 16 16">
 <path d="m15.859922 8.8276729c-0.1864-0.1862402-0.48848-0.1862402-0.67472 0l-2.725282 2.7249621-5.3142443-5.3152042 2.7248021-2.7244821c0.1864002-0.1860801 0.1864002-0.4881603 0-0.6747205-0.1864001-0.1865601-0.4883204-0.1865601-0.6747205 0l-3.0616024 3.0611224c-1.6e-4 1.6e-4 -6.4e-4 4.8e-4 -8e-4 6.4e-4l-1.0835208 1.0833608c-0.00464 0.0048-0.00784 0.01056-0.01232 0.01536-0.0184 0.02-0.036 0.04032-0.05024 0.0624-0.00448 0.00688-0.00736 0.01472-0.01152 0.02192-0.01248 0.02144-0.02416 0.0432-0.03312 0.06592-6.4e-4 0.00176-0.00192 0.00336-0.00256 0.00528l-1.3968012 3.7484826-1.6252813 1.625122c-0.1862401 0.18656-0.1862401 0.48864 0 0.67504l0.3545603 0.354401-2.1329616 2.132801c-0.10672009 0.1064-0.15664012 0.25728-0.13488011 0.406241 0.02192002 0.14928 0.11280009 0.27952 0.24544019 0.3512l2.8473623 1.539361c0.07152 0.03824 0.1494401 0.05712 0.2267201 0.05712 0.1235201 0 0.2459202-0.048 0.3376003-0.13984l1.4790411-1.478561 0.3628803 0.36304c0.09296 0.09296 0.2152002 0.13968 0.3374403 0.13968 0.1219201 0 0.2441602-0.04672 0.3372802-0.13968l1.6257613-1.625761 3.7398428-1.405121c0.0016-4.8e-4 0.0029-0.0014 0.0042-0.0021 0.02608-0.01008 0.05136-0.02336 0.076-0.03824 0.0038-0.0022 0.0082-0.0037 0.01184-0.0061 0.02768-0.01776 0.05376-0.03856 0.07792-0.06288l1.083521-1.083681 3.062242-3.0620826c0.186561-0.1868802 0.186561-0.4886404 1.6e-4 -0.6750405zm-4.074403 3.3998421-0.4088 0.408801-5.3148842-5.3152043 0.4086404-0.4086403zm-4.4136031 2.078242c-0.06352 0.024-0.1212801 0.06112-0.1694402 0.10944l-1.361281 1.361281-2.9107223-2.910882 1.3611211-1.361281c0.04848-0.04864 0.08576-0.10704 0.1097601-0.17104l1.1736009-3.1496026 4.9404835 4.9412836z" style="fill:#808080"/>
</svg>

<svg xmlns="http://www.w3.org/2000/svg" width="16" height="16" x="0" y="0" version="1.1" viewBox="0 2.04 16 16" xml:space="preserve">
 <path d="m 15.859922,8.8276729 c -0.1864,-0.1862402 -0.48848,-0.1862402 -0.67472,0 L 12.45992,11.552635 7.1456757,6.2374308 9.8704778,3.5129487 c 0.1864002,-0.1860801 0.1864002,-0.4881603 0,-0.6747205 -0.1864001,-0.1865601 -0.4883204,-0.1865601 -0.6747205,0 L 6.1341549,5.8993506 c -1.6e-4,1.6e-4 -6.4e-4,4.8e-4 -8e-4,6.4e-4 L 5.0498341,6.9833514 c -0.00464,0.0048 -0.00784,0.01056 -0.01232,0.01536 -0.0184,0.02 -0.036,0.04032 -0.05024,0.0624 -0.00448,0.00688 -0.00736,0.01472 -0.01152,0.02192 -0.01248,0.02144 -0.02416,0.0432 -0.03312,0.06592 -6.4e-4,0.00176 -0.00192,0.00336 -0.00256,0.00528 L 3.5432729,10.902714 1.9179916,12.527836 c -0.1862401,0.18656 -0.1862401,0.48864 0,0.67504 l 0.3545603,0.354401 -2.13296164,2.132801 c -0.10672009,0.1064 -0.15664012,0.25728 -0.13488011,0.406241 0.02192002,0.14928 0.11280009,0.27952 0.24544019,0.3512 L 3.0975126,17.98688 c 0.07152,0.03824 0.1494401,0.05712 0.2267201,0.05712 0.1235201,0 0.2459202,-0.048 0.3376003,-0.13984 l 1.4790411,-1.478561 0.3628803,0.36304 c 0.09296,0.09296 0.2152002,0.13968 0.3374403,0.13968 0.1219201,0 0.2441602,-0.04672 0.3372802,-0.13968 l 1.6257613,-1.625761 3.7398428,-1.405121 c 0.0016,-4.8e-4 0.0029,-0.0014 0.0042,-0.0021 0.02608,-0.01008 0.05136,-0.02336 0.076,-0.03824 0.0038,-0.0022 0.0082,-0.0037 0.01184,-0.0061 0.02768,-0.01776 0.05376,-0.03856 0.07792,-0.06288 l 1.083521,-1.083681 3.062242,-3.0620826 c 0.186561,-0.1868802 0.186561,-0.4886404 1.6e-4,-0.6750405 z m -4.074403,3.3998421 -0.4088,0.408801 L 6.0618348,7.3211117 6.4704752,6.9124714 Z m -4.4136031,2.078242 c -0.06352,0.024 -0.1212801,0.06112 -0.1694402,0.10944 l -1.361281,1.361281 -2.9107223,-2.910882 1.3611211,-1.361281 c 0.04848,-0.04864 0.08576,-0.10704 0.1097601,-0.17104 L 5.5749545,8.1836724 10.515438,13.124956 Z" style="fill:#4d4d4d"/>
</svg>
